icons/24/home.svg

<svg width="24" height="24" viewBox="0 0 24 24" xmlns="http://www.w3.org/2000/svg">
  <path fill-rule="evenodd" clip-rule="evenodd" d="M11.03 2.59C11.301 2.36026 11.6447 2.23416 12 2.23416C12.3553 2.23416 12.699 2.36026 12.97 2.59L20.47 8.954C20.6359 9.09469 20.7693 9.26979 20.8608 9.46716C20.9523 9.66453 20.9998 9.87945 21 10.097V19.5C21 19.8978 20.842 20.2794 20.5607 20.5607C20.2794 20.842 19.8978 21 19.5 21H13.75C13.5511 21 13.3603 20.921 13.2197 20.7803C13.079 20.6397 13 20.4489 13 20.25V14H11V20.25C11 20.4489 10.921 20.6397 10.7803 20.7803C10.6397 20.921 10.4489 21 10.25 21H4.5C4.10218 21 3.72064 20.842 3.43934 20.5607C3.15804 20.2794 3 19.8978 3 19.5V10.097C3 9.657 3.194 9.239 3.53 8.954L11.03 2.59ZM12 3.734L4.5 10.097V19.5H9.5V13.25C9.5 13.0511 9.57902 12.8603 9.71967 12.7197C9.86032 12.579 10.0511 12.5 10.25 12.5H13.75C13.9489 12.5 14.1397 12.579 14.2803 12.7197C14.421 12.8603 14.5 13.0511 14.5 13.25V19.5H19.5V10.097L12 3.734Z"/>
</svg>

<svg width="24" height="24" viewBox="0 0 24 24" xmlns="http://www.w3.org/2000/svg">
  <path fill-rule="evenodd" clip-rule="evenodd" d="M11.03 2.59a1.5 1.5 0 011.94 0l7.5 6.364a1.5 1.5 0 01.53 1.143V19.5a1.5 1.5 0 01-1.5 1.5h-5.75a.75.75 0 01-.75-.75V14h-2v6.25a.75.75 0 01-.75.75H4.5A1.5 1.5 0 013 19.5v-9.403c0-.44.194-.858.53-1.143l7.5-6.364zM12 3.734l-7.5 6.363V19.5h5v-6.25a.75.75 0 01.75-.75h3.5a.75.75 0 01.75.75v6.25h5v-9.403L12 3.734z"/>
</svg>
